src/shared/icons/product.svg

<?xml version="1.0" encoding="UTF-8" standalone="no"?>
<svg width="16px" height="16px" viewBox="0 0 16 16" version="1.1" xmlns="http://www.w3.org/2000/svg" xmlns:xlink="http://www.w3.org/1999/xlink">
    <!-- Generator: sketchtool 41.2 (35397) - http://www.bohemiancoding.com/sketch -->
    <title>04C07D39-DEA5-4A35-96BE-AB1CBA0C926C</title>
    <desc>Created with sketchtool.</desc>
    <defs>
        <polygon id="path-1" points="15.9145514 0.0737912392 15.9145514 15.679531 -2.00176077e-12 15.679531 -2.00176077e-12 0.0737912392 15.9144975 0.0737912392 15.9144975 15.6795342 -1.10186447e-05 15.6795342 -1.10186447e-05 0.0737820958 15.9144975 0.0737820958"></polygon>
        <polygon id="path-3" points="2.35758598e-05 15.679531 15.9144888 15.679531 15.9144888 0.0737912392 2.35758598e-05 0.0737912392"></polygon>
    </defs>
    <g id="Catalogue" stroke="none" stroke-width="1" fill="none" fill-rule="evenodd">
        <g id="Seller-search-V3.2" transform="translate(-528.000000, -629.000000)">
            <g id="Digital-products-icon" transform="translate(528.000000, 629.000000)">
                <g id="Group-3" transform="translate(0.000000, 0.014794)">
                    <mask id="mask-2" fill="white">
                        <use xlink:href="#path-1"></use>
                    </mask>
                    <g id="Clip-2"></g>
                    <path d="M2.89673514,1.51862016 C2.13772973,1.75354737 1.43874595,1.96526533 0.742702703,2.18681622 C0.183567568,2.36469474 0.0016,2.61937639 0.00125405405,3.22051366 C-0.000475675678,6.32045439 -0.000389189191,9.42039511 0.00125405405,12.5203358 C0.0016,13.1382157 0.184345946,13.3908599 0.776518919,13.5740535 C2.97967568,14.2561574 5.18092973,14.945791 7.39247568,15.5983961 C7.73357838,15.6990286 8.15035676,15.7097473 8.4892973,15.609735 C10.7286054,14.9491572 12.9567568,14.2493363 15.1868973,13.5567794 C15.7193081,13.3913914 15.9122595,13.1207644 15.9126919,12.5542639 C15.9151135,9.43961804 15.915027,6.32488363 15.9128649,3.21023781 C15.9124324,2.61822478 15.7250162,2.3596454 15.159827,2.18415867 C12.9434378,1.49585383 10.7291243,0.799930695 8.504,0.142364827 C8.16410811,0.0419981111 7.75571892,0.05998085 7.4064,0.143427846 C6.6652973,0.320597688 5.94227027,0.576873864 5.21189189,0.80072796 C4.4867027,1.02298753 4.4867027,1.02298753 4.4867027,1.79589096 L4.4867027,5.08859248 C3.94927568,5.19028797 3.45154595,5.28454232 2.89673514,5.38951545 L2.89673514,1.51862016 Z" id="Fill-1" fill="#FFFFFF" mask="url(#mask-2)"></path>
                </g>
                <g id="Group-6" transform="translate(0.000000, 0.014794)">
                    <mask id="mask-4" fill="white">
                        <use xlink:href="#path-3"></use>
                    </mask>
                    <g id="Clip-5"></g>
                    <path d="M8.84466162,2.08321615 L8.84466162,13.6657832 C10.646867,13.1100014 12.4147373,12.5646726 14.1677319,12.0240388 L14.1677319,3.72380889 C12.3973535,3.17812578 10.637613,2.63580889 8.84466162,2.08321615 M2.89672649,1.51857587 L2.89672649,5.38947116 C3.4515373,5.28449803 3.94926703,5.19033226 4.48669405,5.08863677 L4.48669405,1.79593525 C4.48669405,1.02303182 4.48669405,1.02303182 5.21188324,0.800772252 C5.94226162,0.576918157 6.66528865,0.320553395 7.40639135,0.143472138 C7.75571027,0.0599365576 8.16409946,0.0419538186 8.50399135,0.142409119 C10.7291157,0.799886403 12.9434292,1.49589813 15.1598184,2.18411438 C15.7250076,2.35960111 15.9124238,2.61818049 15.9128562,3.21019352 C15.9150184,6.32483934 15.9151049,9.43957375 15.9126832,12.5543082 C15.9122508,13.1207201 15.7192995,13.3914357 15.1869751,13.5567351 C12.9567481,14.249292 10.7285968,14.9492015 8.48928865,15.6097793 C8.15034811,15.7097916 7.73356973,15.6990729 7.39246703,15.5984404 C5.18092108,14.9458353 2.97975351,14.2562017 0.77651027,13.5740092 C0.184337297,13.3908156 0.00159135135,13.1381714 0.0012454054,12.5202915 C-0.000397837839,9.42043941 -0.000397837839,6.32049868 0.00133189189,3.22055795 C0.00159135135,2.61942068 0.183558919,2.36473903 0.742694054,2.18677193 C1.4387373,1.96530962 2.13772108,1.75359166 2.89672649,1.51857587" id="Fill-4" fill="#4F4F4F" mask="url(#mask-4)"></path>
                </g>
                <path d="M13.3482551,7.38923146 C13.0241903,7.71814727 12.8744822,7.89451985 12.5706551,8.27277746 C12.6572281,8.77921746 12.7002119,9.03540505 12.7845362,9.57612741 C12.7868714,9.59508458 12.7872173,9.61164996 12.7876497,9.63087289 C12.78912,9.70218375 12.7653362,9.77127999 12.7037578,9.77739235 C12.674093,9.78040423 12.6439957,9.7694197 12.6181362,9.75258857 C12.2295524,9.52979749 12.0301146,9.42473578 11.6267416,9.21275206 C11.2331416,9.52102759 11.0304173,9.68526403 10.6070659,10.0335799 C10.5765362,10.059181 10.5458335,10.0792898 10.5125362,10.0852249 C10.44352,10.0976268 10.4121254,10.0330484 10.4118659,9.95748549 C10.4117795,9.93702237 10.4142011,9.91903964 10.4161903,9.89822218 C10.4963632,9.30151415 10.5358011,9.00812089 10.6125146,8.43320475 C10.2722768,8.06805771 10.1012065,7.88052343 9.73908757,7.47808214 C9.70933622,7.44078788 9.6768173,7.39153467 9.6768173,7.33767504 C9.6768173,7.24784993 9.75448216,7.20931549 9.81597405,7.19540765 C10.3112822,7.09220622 10.5398659,7.04623065 10.9845795,6.96411242 C11.1788281,6.46697385 11.2719741,6.22965484 11.4542011,5.76954476 C11.4724497,5.72162032 11.5071308,5.66749494 11.5560822,5.67236711 C11.604947,5.67715069 11.6420497,5.73774278 11.6624605,5.78850194 C11.86432,6.27598476 11.9666335,6.50940603 12.1722984,6.96845309 C12.6063741,7.04782518 12.8232822,7.08680254 13.2781146,7.16688331 C13.3322551,7.17760208 13.4055957,7.20736662 13.4061146,7.27752588 C13.4063741,7.31960371 13.3772281,7.35893542 13.3482551,7.38923146" id="Fill-7" fill="#4F4F4F"></path>
            </g>
        </g>
    </g>
</svg>

<svg width="16" height="16" viewBox="0 0 16 16" xmlns="http://www.w3.org/2000/svg" xmlns:xlink="http://www.w3.org/1999/xlink"><title>04C07D39-DEA5-4A35-96BE-AB1CBA0C926C</title><defs><path id="a" d="M15.915.074V15.68H0V.074h15.914V15.68H0V.074h15.914z"/><path id="c" d="M0 15.68h15.914V.074H0z"/></defs><g fill="none" fill-rule="evenodd"><g transform="translate(0 .015)"><mask id="b" fill="#fff"><use xlink:href="#a"/></mask><path d="M2.897 1.519c-.76.235-1.458.446-2.154.668-.56.178-.741.432-.742 1.034v9.3c0 .617.183.87.776 1.053 2.203.682 4.404 1.372 6.615 2.024.342.101.758.112 1.097.012 2.24-.66 4.468-1.36 6.698-2.053.532-.166.725-.436.726-1.003.002-3.114.002-6.23 0-9.344 0-.592-.188-.85-.753-1.026C12.943 1.496 10.73.8 8.504.142c-.34-.1-.748-.082-1.098.001-.74.178-1.464.434-2.194.658-.725.222-.725.222-.725.995v3.293l-1.59.3V1.52z" fill="#FFF" mask="url(#b)"/></g><g transform="translate(0 .015)"><mask id="d" fill="#fff"><use xlink:href="#c"/></mask><path d="M8.845 2.083v11.583l5.323-1.642v-8.3l-5.323-1.64m-5.948-.565v3.87l1.59-.3V1.796c0-.773 0-.773.725-.995.73-.224 1.453-.48 2.194-.658.35-.083.758-.101 1.098 0 2.225.657 4.44 1.353 6.656 2.041.565.176.752.434.753 1.026.002 3.115.002 6.23 0 9.344 0 .567-.194.837-.726 1.003-2.23.692-4.458 1.392-6.698 2.053-.339.1-.755.09-1.097-.012-2.211-.652-4.412-1.342-6.615-2.024-.593-.183-.775-.436-.776-1.054v-9.3c0-.6.183-.855.742-1.033.696-.222 1.395-.433 2.154-.668" fill="#4F4F4F" mask="url(#d)"/></g><path d="M13.348 7.39a9.67 9.67 0 0 0-.777.883c.086.506.13.762.214 1.303l.003.055c.001.071-.023.14-.084.146a.135.135 0 0 1-.086-.024 25.646 25.646 0 0 0-.991-.54c-.394.308-.597.472-1.02.82a.211.211 0 0 1-.094.052c-.07.013-.1-.052-.101-.128 0-.02.002-.038.004-.059l.197-1.465c-.34-.365-.512-.552-.874-.955-.03-.037-.062-.086-.062-.14 0-.09.077-.129.139-.143.495-.103.724-.149 1.169-.23.194-.498.287-.735.47-1.195.017-.048.052-.103.101-.098.049.005.086.066.106.117.202.487.305.72.51 1.18.434.079.651.118 1.106.198.054.01.128.04.128.11 0 .043-.029.082-.058.112" fill="#4F4F4F"/></g></svg>
